X: 20195
Q: "Moderate."
M: C
L: 1/8
K: G
d3d |\
(ed)(cB) g3f | (fe)d2 d2d2 |\
(ed)(cB) (ed)(cB) | (B2A2) d2d2 |\
(ed)(cB) g3f | (fe)d2 (de)(fg) |\
(ef/g/) (fe) (dc)(BA) | (A2G2) :|
|: A2A2 |\
(ed)(cB) g3f | (fe)d2 (de)(fg) |\
(ef/g/) (fe) (dc)(BA) | (A2G2) :|


